svgs/sharp-regular/laptop-slash.svg

<svg xmlns="http://www.w3.org/2000/svg" viewBox="0 0 640 512"><!--! Font Awesome Pro 6.6.0 by @fontawesome - https://fontawesome.com License - https://fontawesome.com/license (Commercial License) Copyright 2024 Fonticons, Inc. --><path d="M48.4 14.8L29.4 .1 0 38 19 52.7 591.5 497.2l19 14.7L639.9 474l-19-14.7-13.6-10.6L640 416l0-16 0-48-48 0-109.3 0L132.4 80 528 80l0 240 48 0 0-240 0-48-48 0L112 32 70.5 32 48.4 14.8zM544.6 400l43.6 0-19 19-24.5-19zM51.9 400l333.8 0-60.9-48L48 352 0 352l0 48 0 16 64 64 423.2 0-60.9-48L83.9 432l-32-32zM112 184.4L64 146.6 64 320l48 0 0-135.6z"/></svg>

<svg xmlns="http://www.w3.org/2000/svg" viewBox="0 0 640 512"><!--! Font Awesome Pro 6.4.2 by @fontawesome - https://fontawesome.com License - https://fontawesome.com/license (Commercial License) Copyright 2023 Fonticons, Inc. --><path d="M48.4 14.8L29.4 .1 0 38 19 52.7 591.5 497.2l19 14.7L639.9 474l-19-14.7-13.6-10.6L640 416V400 352H592 482.7L132.4 80H528V320h48V80 32H528 112 70.5L48.4 14.8zM544.6 400h43.6l-19 19-24.5-19zM51.9 400H385.7l-60.9-48H48 0v48 16l64 64H487.2l-60.9-48H83.9l-32-32zM112 184.4L64 146.6V320h48V184.4z"/></svg>
